src/_assets/sidebar/whitelisted-caller-icon.svg

<svg width="24" height="24" viewBox="0 0 24 24" fill="none" xmlns="http://www.w3.org/2000/svg">
<path d="M12.1984 9.23278C12.2257 9.23278 12.251 9.23278 12.2809 9.23278C12.3109 9.23278 12.3335 9.23278 12.3613 9.22895C12.3072 9.2295 12.2525 9.23059 12.1984 9.23278Z" fill="#485F7D"/>
<path d="M22.5448 15.2984C22.4999 14.8045 22.3432 14.3287 22.0874 13.9101C21.8316 13.4915 21.4841 13.1421 21.0735 12.8906C21.4787 12.4403 21.7008 11.844 21.693 11.2269V11.1925C21.6767 9.84843 20.6894 8.8426 19.392 8.8426H19.3663C18.9174 8.84728 18.4799 8.98963 18.1083 9.25186C17.7367 9.51409 17.4476 9.88457 17.2771 10.317C17.1066 10.7494 17.0623 11.2245 17.1496 11.6831C17.237 12.1416 17.4522 12.5631 17.7683 12.8949C17.3035 13.1751 16.9218 13.5831 16.6648 14.0743C16.6648 13.9161 16.6601 13.7569 16.6564 13.5976C16.627 12.2246 16.0364 11.0474 14.9492 10.1998C14.7261 10.0247 14.4898 9.86876 14.2425 9.73351C14.7143 9.20731 14.9729 8.51179 14.9644 7.79189V7.76398C14.9645 7.39664 14.8943 7.03297 14.7579 6.69417C14.6216 6.35537 14.4219 6.04822 14.1705 5.79062C13.9143 5.531 13.6108 5.32739 13.2779 5.19177C12.945 5.05616 12.5894 4.99127 12.232 5.00094C10.7744 5.02393 9.59947 6.29134 9.61261 7.82636C9.62207 8.53843 9.88996 9.22037 10.3624 9.73515C8.80392 10.533 7.9595 11.9241 7.91852 13.753C7.91852 13.8592 7.91431 13.9648 7.91274 14.071C7.64776 13.5845 7.26352 13.18 6.79928 12.8988C7.00958 12.6721 7.17458 12.4043 7.28471 12.1107C7.39485 11.8171 7.44793 11.5037 7.44087 11.1886C7.41985 9.84624 6.43093 8.8426 5.13566 8.8426H5.10781C4.65987 8.84856 4.22348 8.99145 3.85285 9.25351C3.48222 9.51557 3.19368 9.88525 3.02307 10.3166C2.85246 10.748 2.80729 11.2221 2.89318 11.68C2.97908 12.1379 3.19224 12.5594 3.5062 12.8922C2.71118 13.3771 2.14736 14.2007 2.05172 15.1518C1.97973 15.8911 1.99917 16.6397 2.01441 17.3616C2.02177 17.6746 2.02913 17.9974 2.02913 18.3148V18.9951H16.1867V19H22.5658V18.3192C22.5658 18.0171 22.5721 17.708 22.5779 17.4092C22.5894 16.7202 22.6036 16.0077 22.5448 15.2984ZM5.12148 10.2041C5.70737 10.1932 6.12511 10.6118 6.13457 11.2116C6.1435 11.7983 5.72103 12.2514 5.15195 12.2618C5.02423 12.2639 4.89744 12.2388 4.77935 12.1881C4.66125 12.1374 4.55435 12.0621 4.46517 11.9668C4.36982 11.8708 4.29365 11.7561 4.24108 11.6293C4.1885 11.5025 4.16054 11.3661 4.15883 11.228C4.15823 10.96 4.25882 10.7024 4.4389 10.5109C4.61898 10.3193 4.86412 10.2092 5.12148 10.2041ZM6.97163 17.3211C6.97163 17.4245 6.96638 17.529 6.96375 17.6341H3.32755C3.32755 17.5312 3.32282 17.4294 3.32071 17.3287C3.3039 16.6173 3.28814 15.9464 3.35329 15.2913C3.43474 14.4672 4.23397 13.7946 5.13566 13.7908H5.14302C6.04577 13.7908 6.84972 14.4513 6.93643 15.2683C7.00684 15.9256 6.99107 16.6025 6.97163 17.3211ZM11.3062 6.79153C11.4285 6.65813 11.5752 6.55148 11.7376 6.47781C11.9 6.40415 12.0749 6.36494 12.252 6.36249H12.2762C12.6412 6.35614 12.9938 6.49987 13.2577 6.76252C13.3856 6.89495 13.4869 7.05258 13.5556 7.22622C13.6244 7.39986 13.6592 7.58601 13.6581 7.77383C13.6655 8.57664 13.1253 9.17751 12.3634 9.23059C12.3371 9.23059 12.3109 9.23388 12.283 9.23442C12.2552 9.23497 12.2305 9.23442 12.2005 9.23442C11.8796 9.21476 11.5767 9.07321 11.3493 8.83658C11.0843 8.57074 10.9314 8.20625 10.9242 7.82314C10.917 7.44002 11.0561 7.06959 11.3109 6.79317L11.3062 6.79153ZM15.3622 16.8707C15.3622 17.1246 15.3596 17.3785 15.3585 17.6341H9.21746V17.5575C9.21746 17.1689 9.21623 16.7806 9.21378 16.3924C9.2101 15.5359 9.2059 14.6505 9.22534 13.7853C9.25477 12.4511 9.82069 11.5235 10.9557 10.9484C12.0702 10.3842 13.1506 10.4991 14.1668 11.2904C14.9313 11.8858 15.3291 12.6728 15.3496 13.6282C15.3722 14.7003 15.3675 15.7548 15.3622 16.8707ZM19.392 10.2041C19.6857 10.2041 19.9322 10.3048 20.1061 10.481C20.1972 10.577 20.2689 10.691 20.3169 10.8163C20.3649 10.9416 20.3883 11.0756 20.3857 11.2105C20.393 11.8081 19.9816 12.2503 19.4072 12.2618C19.2794 12.2617 19.1529 12.2352 19.0349 12.1839C18.9169 12.1327 18.8099 12.0576 18.7199 11.963C18.5781 11.8239 18.4794 11.6438 18.4366 11.4459C18.3937 11.248 18.4086 11.0413 18.4794 10.8522C18.5501 10.6632 18.6735 10.5005 18.8337 10.385C18.9939 10.2695 19.1835 10.2066 19.3783 10.2041H19.392ZM21.2705 17.3813C21.2705 17.4661 21.2669 17.5525 21.2653 17.639H17.5361C17.5361 17.5296 17.5375 17.4212 17.5403 17.3139C17.5492 16.5631 17.5576 15.8544 17.6669 15.1715C17.8025 14.3293 18.6232 13.7361 19.5743 13.7941C20.4387 13.8461 21.1712 14.5602 21.2427 15.4161C21.2952 16.052 21.2837 16.6977 21.269 17.3813H21.2705Z" fill="#485F7D"/>
</svg>

<svg xmlns="http://www.w3.org/2000/svg" width="24" height="24" fill="none"><path fill="#485F7D" d="M12.198 9.233h.083c.03 0 .053 0 .08-.004q-.081 0-.163.004"/><path fill="#485F7D" d="M22.545 15.298a3.2 3.2 0 0 0-.458-1.388 3.1 3.1 0 0 0-1.014-1.02c.406-.45.628-1.046.62-1.663v-.034c-.016-1.345-1.004-2.35-2.301-2.35h-.026a2.2 2.2 0 0 0-1.258.409 2.36 2.36 0 0 0-.83 1.065 2.47 2.47 0 0 0-.128 1.366c.087.459.302.88.618 1.212-.465.28-.846.688-1.103 1.18q-.002-.239-.009-.477c-.029-1.373-.62-2.55-1.707-3.398a5 5 0 0 0-.707-.466 2.86 2.86 0 0 0 .722-1.942v-.028c0-.367-.07-.731-.206-1.07a2.8 2.8 0 0 0-.587-.903 2.7 2.7 0 0 0-.893-.6 2.6 2.6 0 0 0-1.046-.19c-1.458.023-2.633 1.29-2.62 2.825.01.712.278 1.394.75 1.91-1.558.797-2.402 2.188-2.443 4.017 0 .106-.005.212-.006.318a3.1 3.1 0 0 0-1.114-1.172c.21-.227.376-.495.486-.788a2.5 2.5 0 0 0 .156-.922C7.42 9.846 6.43 8.843 5.136 8.843h-.028a2.22 2.22 0 0 0-1.255.41c-.37.263-.66.632-.83 1.064-.17.431-.216.905-.13 1.363s.3.88.613 1.212c-.795.485-1.359 1.309-1.454 2.26-.072.74-.053 1.488-.038 2.21.008.313.015.635.015.953v.68h14.158V19h6.379v-.68c0-.303.006-.612.012-.91.011-.69.026-1.402-.033-2.112M5.12 10.204c.586-.01 1.004.408 1.014 1.008.009.586-.414 1.04-.983 1.05a.9.9 0 0 1-.687-.295 1.083 1.083 0 0 1-.306-.739c0-.268.1-.526.28-.717a.96.96 0 0 1 .682-.307m1.85 7.117q-.002.155-.007.313H3.328q-.002-.155-.007-.305c-.017-.712-.033-1.383.032-2.038.082-.824.881-1.496 1.783-1.5h.007c.903 0 1.707.66 1.793 1.477.07.658.055 1.334.036 2.053m4.335-10.53c.123-.133.27-.24.432-.313s.337-.113.514-.116h.024c.365-.006.718.138.982.4q.193.201.298.464c.068.174.103.36.102.548.008.803-.533 1.404-1.295 1.457q-.038.002-.08.003h-.082a1.3 1.3 0 0 1-.852-.397 1.48 1.48 0 0 1-.425-1.014 1.48 1.48 0 0 1 .387-1.03zm4.056 10.08q0 .38-.004.763h-6.14v-.076q0-.584-.004-1.166c-.004-.856-.008-1.742.011-2.607.03-1.334.596-2.261 1.73-2.837 1.115-.564 2.196-.449 3.212.342.764.596 1.162 1.383 1.183 2.338.022 1.072.018 2.127.012 3.243m4.03-6.667c.294 0 .54.1.714.277q.138.146.21.335.073.191.07.394c.007.598-.404 1.04-.979 1.052a.966.966 0 0 1-.687-.299c-.142-.14-.24-.32-.283-.517a1.06 1.06 0 0 1 .042-.594c.071-.189.195-.351.355-.467a.95.95 0 0 1 .544-.18zm1.878 7.177q-.001.128-.005.258h-3.729q0-.165.004-.325c.01-.75.018-1.46.127-2.142.135-.843.956-1.436 1.907-1.378.865.052 1.597.766 1.669 1.622.052.636.04 1.282.026 1.965z"/></svg>
